images/vk.svg

<svg width="33" height="22" viewBox="0 0 33 22" fill="none" xmlns="http://www.w3.org/2000/svg">
<path d="M17.8419 20.9897C6.90186 20.9897 0.661855 13.4897 0.401855 0.989746H5.88186C6.06185 10.1497 10.1019 13.9897 13.3019 14.8297V1.00975H18.4619V8.90975C21.6219 8.56975 24.9419 4.96975 26.0619 1.00975H31.2219C30.8072 3.06901 29.9714 5.02032 28.7668 6.74119C27.5622 8.46206 26.0148 9.91532 24.2219 11.0097C26.2208 12.0012 27.9868 13.405 29.4037 15.1287C30.8206 16.8524 31.856 18.8568 32.4419 21.0097H26.7419C26.2189 19.1361 25.154 17.4588 23.6808 16.1885C22.2077 14.9182 20.392 14.1115 18.4619 13.8697V21.0097L17.8419 20.9897Z" fill="white"/>
<path d="M17.8419 20.9897C6.90186 20.9897 0.661855 13.4897 0.401855 0.989746H5.88186C6.06185 10.1497 10.1019 13.9897 13.3019 14.8297V1.00975H18.4619V8.90975C21.6219 8.56975 24.9419 4.96975 26.0619 1.00975H31.2219C30.8072 3.06901 29.9714 5.02032 28.7668 6.74119C27.5622 8.46206 26.0148 9.91532 24.2219 11.0097C26.2208 12.0012 27.9868 13.405 29.4037 15.1287C30.8206 16.8524 31.856 18.8568 32.4419 21.0097H26.7419C26.2189 19.1361 25.154 17.4588 23.6808 16.1885C22.2077 14.9182 20.392 14.1115 18.4619 13.8697V21.0097L17.8419 20.9897Z" fill="url(#paint0_linear_2_1797)"/>
<defs>
<linearGradient id="paint0_linear_2_1797" x1="24.2057" y1="-1.32272" x2="10.6384" y2="24.3775" gradientUnits="userSpaceOnUse">
<stop offset="0.1177" stop-color="#7ACA37"/>
<stop offset="0.2561" stop-color="#70C53A"/>
<stop offset="0.4886" stop-color="#56B641"/>
<stop offset="0.7848" stop-color="#2C9F4E"/>
<stop offset="1" stop-color="#098C58"/>
</linearGradient>
</defs>
</svg>

<svg width="33" height="22" fill="none" xmlns="http://www.w3.org/2000/svg"><path d="M17.842 20.99c-10.94 0-17.18-7.5-17.44-20h5.48c.18 9.16 4.22 13 7.42 13.84V1.01h5.16v7.9c3.16-.34 6.48-3.94 7.6-7.9h5.16a15.241 15.241 0 0 1-7 10 15.791 15.791 0 0 1 8.22 10h-5.7a9.87 9.87 0 0 0-8.28-7.14v7.14l-.62-.02Z" fill="#fff"/><path d="M17.842 20.99c-10.94 0-17.18-7.5-17.44-20h5.48c.18 9.16 4.22 13 7.42 13.84V1.01h5.16v7.9c3.16-.34 6.48-3.94 7.6-7.9h5.16a15.241 15.241 0 0 1-7 10 15.791 15.791 0 0 1 8.22 10h-5.7a9.87 9.87 0 0 0-8.28-7.14v7.14l-.62-.02Z" fill="url(#a)"/><defs><linearGradient id="a" x1="24.206" y1="-1.323" x2="10.638" y2="24.378" gradientUnits="userSpaceOnUse"><stop offset=".118" stop-color="#7ACA37"/><stop offset=".256" stop-color="#70C53A"/><stop offset=".489" stop-color="#56B641"/><stop offset=".785" stop-color="#2C9F4E"/><stop offset="1" stop-color="#098C58"/></linearGradient></defs></svg>
